X:1
T:Title
%%score ( 1 2 ) ( 3 4 )
L:1/8
Q:1/4=160
M:2/2
K:Ab
V:1 treble nm="Strings 1, SOPRANO ALTO"
V:2 treble 
V:3 bass nm="Strings 1, TENOR BASS"
V:4 bass 
V:1
 z4 z2 [CE]2 | [CE]4 [A,C]2 [CE]2 | [CA]4 [CE]2 [CA]2 | [Ec]2 [Fd]2 [Ec]2 [FB]2 | A4 G2 [DG]2 | %5
w: 1.~O~|beau ti ful~|Zi on,~ fair~|bride~ * of~ the~|Lamb,~ * Thy~|
 [CA]4 [DF]2 [DF]2 | [CE]4 [B,D]2 [B,D]2 | [A,C]6 [CE]2 | [Ec]4 [Ec]2 [Ec]2 | [_Ge]4 [Fd]2 [Fd]2 | %10
w: mar vel ous~|light~ we~ be|hold,~ Which~|shone~ on~ the~|na tions~ en|
 [Ec]4 [EA]2 E2 | [E_G]2 [DF]4 [DF]2 | [CE]4 [Ee]2 [Fd]2 | [Ec]4 [DB]2 [DB]2 | [CA]6 [A,C]2 | %15
w: shroud ed~ by~|dark ness,~ And~|mil lions~ were~|brought~ to~ thy~|fold.~ *|
 [CE]4 [CE]2 [DF]2 | [CE]4 [A,C]2 [CE]2 | [CA]4 [CA]2 [DB]2 | [CA]4 [CE]2 [EA]2 | %19
w: ||||
 [Ac]4 [Ac]2 [Ac]2 | [Ac]4 [EB]2 A2 | [Ge]4 [Ae]2 [Be]2 | [Ae]6 [Ac]2 | [Ae]4 [Ae]2 [Af]2 | %24
w: |||||
 [Ae]4 [Ec]2 [EA]2 | [DA]4 [FA]2 [FB]2 | [FA]4 [DF]2 [DF]2 | [CE]4 [CE]2 [CE]2 | %28
w: ||||
 [Ec]2 [EA]4 [DF]2 | [CE]4 [DF]2 [DG]2 | [CA]8 |] %31
w: |||
V:2
 x8 | x8 | x8 | x8 | E8 | x8 | x8 | x8 | x8 | x8 | x8 | x8 | x8 | x8 | x8 | x8 | x8 | x8 | x8 | %19
 x8 | x8 | x8 | x8 | x8 | x8 | x8 | x8 | x8 | x8 | x8 | x8 |] %31
V:3
 z4 z2 [A,,A,]2 | [A,,A,]4 [A,,E,]2 [A,,A,]2 | [A,,A,]4 [A,,A,]2 [A,,A,]2 | A,4 A,2 A,2 | %4
 C4 B,2 [E,B,]2 | [A,,A,]4 [D,A,]2 [D,A,]2 | [E,A,]4 [E,,E,]2 [E,,E,]2 | [A,,E,]6 [A,,A,]2 | %8
 [A,,A,]4 [A,,A,]2 A,2 | [A,C]4 A,2 A,2 | A,4 [C,A,]2 [C,A,]2 | [D,A,]2 [D,A,]4 [D,A,]2 | %12
 [A,,A,]4 [C,A,]2 [D,A,]2 | [E,A,]4 [E,G,]2 [E,,E,G,]2 | [A,,A,]6 [A,,E,]2 | %15
 [A,,A,]4 [A,,A,]2 [A,,A,]2 | [A,,A,]4 [A,,E,]2 [A,,E,]2 | [A,,E,]4 [A,,E,]2 [A,,E,]2 | %18
 [A,,E,]4 [A,,A,]2 [A,C]2 | [A,E]4 [A,E]2 [A,E]2 | [A,E]4 [G,E]2 [F,=D]2 | E2 B,2 [E,C]2 [E,D]2 | %22
 [A,C]6 [A,E]2 | [A,C]4 [A,C]2 [A,D]2 | [A,C]4 [A,,A,]2 [C,A,]2 | [D,F,]4 [D,A,]2 [D,D]2 | %26
 [D,D]4 [D,A,]2 [D,A,]2 | [A,,A,]4 [A,,A,]2 [A,,A,]2 | [A,,A,]2 [C,A,]4 [D,A,]2 | %29
 [E,A,]4 [E,G,]2 [E,B,]2 | [A,,A,]8 |] %31
V:4
 x8 | x8 | x8 | x8 | E,8 | x8 | x8 | x8 | x8 | x8 | x8 | x8 | x8 | x8 | x8 | x8 | x8 | x8 | x8 | %19
 x8 | x8 | E,4 z4 | x8 | x8 | x8 | x8 | x8 | x8 | x8 | x8 | x8 |] %31

